X:1
T:D Major Samuel Babcock, 1803
T:Isaac Watts, 1706 (Hymn 4, Book 1, Part 1)      86. 86. (C. M.)
T:Nativity
T:Transcribed from The Middlesex Harmony, 1803.
%%score [ 1 2 3 ]
L:1/8
Q:1/4=100
M:2/4
K:D
V:1 treble nm="Treble" snm="Tr."
V:2 treble-8 nm="Tenor" snm="T."
V:3 bass nm="Bass" snm="B."
V:1
 A2 | F2 BA | d2 Ag | fe dc | d2 A2 | F3 B | AG FE | F4 | z2 d2 | d2 d2 | gf ed | gf ed | c3 d | %13
w: 1.~Thus|Ga- briel *|sang, and *|straight * a- *|round The|heav'n- ly|ar- * mies *|throng;|They|tune their|harps * to *|lof- * ty *|sound, and|
 dA BG | F2 E2 | D4 |:[M:6/4][Q:1/4=150] F2 F2 F2 F4 A2 | (d2 A2) c2 d4 c2 | (B2 g2) f2 g4 f2 | %19
w: thus * con- *|clude the|song:|"Glo- ry to God that|reigns * a- bove! Let|peace * sur- round the|
 (f6 !fermata!e6) | !wedge!A2 !wedge!B2 !wedge!c2 d4 d2 | (A2 B2) c2 d4 A2 | B4 d2 (G2 F2) E2 | %23
w: earth! *|Mor- tals shall know their|Ma- * ker's love, At|their Re- dee- * mer's|
 F6- F6 :| %24
w: birth." *|
V:2
 d2 | A2 FA | G2 FB | AG FE | F2 A2 | d2 d2 | fe dc | d4 | z2 d2 | B2 B2 | B2 gf | ed cB | A3 G | %13
w: 2.~Lord,|and shall *|an- gels *|have * their *|songs, And|men no|tunes * to *|raise?|O|may we|lose our *|use- * less *|tongues When|
 FA d2 | d2 c2 | d4 |:[M:6/4] A2 A2 d2 (d2 A2) d2 | (B2 A2) G2 F4 A2 | B4 B2 (B2 e2) d2 | %19
w: they * for-|get to|praise.|Glo- ry to God * that|reigns * a- bove, That|pi- tied us * for-|
 (d6 !fermata!c6) | !wedge!A2 !wedge!B2 !wedge!c2 d4 d2 | (e2 d2) c2 d4 d2 | g4 f2 (e2 d2) c2 | %23
w: lorn; *|We join to sing our|Ma- * ker's love, For|there's a Sa- * vior|
 d6- d6 :| %24
w: born. *|
V:3
 D,2 | D,2 D,2 | D,2 D,2 | F,G, A,2 | D2 A,2 | F,2 D,2 | A,,2 A,,2 | D,4 | z2 D,2 | G,2 G,2 | %10
 G,2 G,2 | E,2 E,2 | A,3 G, | F,2 G,2 | A,2 A,,2 | D,4 |:[M:6/4] D,2 D,2 D,2 D,4 D,2 | %17
 D,4 E,2 (F,2 D,2) F,2 | G,4 B,2 E,4 F,>G, | A,6- !fermata!A,6 | %20
 !wedge!A,2 !wedge!B,2 !wedge!C2 D4 D2 | (A,2 B,2) C2 D4 F,2 | G,4 B,2 (G,2 A,2) A,,2 | D,6- D,6 :| %24

